!!!OTL: 447. Hochzeitsfreude eines Landmaedchens.
!!!ODT: 1799
!!!ARE: Europa, Mitteleuropa, Deutschland
!!!SCT: B0447
!!!TXL: @@DE
!!!YEM: Copyright 1995, estate of Helmut Schaffrath.
**kern	**text
*ICvox	*
*Ivox	*
*clefG2	*
*M2/4	*
*k[]	*
*C:	*
=1	=1
!LO:TX:a:t=Heiter.	!
{8cc	Mä-
8cc	-dels,
8cc	ſagt
8cc	es
=2	=2
(4ee	laut
8cc)	.
8r}	.
=3	=3
{8a	Lie-
8a	-ſel
8b	iſt
8b	'ne
=4	=4
(4dd	Braut!
8cc)	.
8r}	.
=5	=5
{8ee	Mi-
8ee	-chel
8ee	thut
8ee	ſie
=6	=6
8.ddL	heu-
16bJ	.
8g	-ren,
8r}	.
=7	=7
{8cc	Haus
8cc	und
8cc	Hof
8cc	und
=8	=8
8.ccL	Scheu-
16bJ	.
4b}	-ren
=9	=9
{8cc	ſind
8cc	für
8cc	mich
8g	ge-
=10	=10
(4g#	-baut.
8a)	.
8r}	.
=11	=11
{8gn	Jch
8cc	bin
16eeL	ei-
16ddJ	.
16ccL	-ne
16bJ	.
=12	=12
4cc	Braut!
4r}	.
==	==
!!!AGN: Liebes - Ehestands - Lied
!!!GTL: Liebeslieder - Liebeslust
!!!ONB: ESAC (Essen Associative Code) Database: BOEHME
!!!AMT: simple duple
!!!AIN: vox
!!!EED: Helmut Schaffrath
!!!EEV: 1.0
!!Mildheim. Ldb. 1799.
!!@@COMMENT:"Gedicht von Dan. Schubart. 1782. Mel. 1799 im Mildheim. Liederbuche" (Melodienb.
!!Nr. 387). Komponiſt jedenfalls der muſikal. Dichter ſelbſt."
!!@@END:
!!!Text: D. Schubart
!!!URL-scan: https://archive.org/details/BoehmeVtLieder1895/page/n361/mode/2up
!!!ENC: Anna Maria Matuszewska
!!!EEV: 2024/09/07
*-	*-
